icons/midnadark/actions/24/application-exit.svg

<svg xmlns="http://www.w3.org/2000/svg" viewBox="0 0 22 22"><path d="m117.18 31.592c-5.595-9.586-13.185-17.18-22.771-22.771-9.588-5.595-20.06-8.392-31.408-8.392-11.352 0-21.822 2.797-31.408 8.392-9.587 5.594-17.18 13.184-22.772 22.771-5.596 9.587-8.393 20.06-8.393 31.408 0 11.352 2.798 21.82 8.392 31.408 5.595 9.585 13.185 17.18 22.772 22.771 9.587 5.595 20.06 8.392 31.408 8.392 11.352 0 21.822-2.797 31.408-8.392 9.586-5.594 17.18-13.185 22.771-22.771 5.594-9.587 8.391-20.06 8.391-31.408 0-11.352-2.797-21.822-8.39-31.408m-24.687 46.15c1.032 1.031 1.549 2.255 1.549 3.667 0 1.466-.517 2.716-1.549 3.747l-7.332 7.333c-1.032 1.032-2.281 1.548-3.748 1.548-1.412 0-2.636-.516-3.666-1.548l-14.747-14.747-14.747 14.747c-1.032 1.032-2.254 1.548-3.666 1.548-1.467 0-2.716-.516-3.748-1.548l-7.333-7.333c-1.032-1.031-1.548-2.281-1.548-3.747 0-1.412.516-2.636 1.548-3.667l14.747-14.746-14.747-14.747c-1.032-1.031-1.548-2.254-1.548-3.666 0-1.467.516-2.716 1.548-3.748l7.333-7.332c1.032-1.032 2.281-1.548 3.748-1.548 1.412 0 2.634.516 3.666 1.548l14.747 14.746 14.747-14.746c1.03-1.032 2.254-1.548 3.666-1.548 1.467 0 2.716.516 3.748 1.548l7.332 7.332c1.032 1.032 1.549 2.281 1.549 3.748 0 1.412-.517 2.635-1.549 3.666l-14.746 14.747 14.746 14.746" transform="matrix(.12785 0 0 .12785 2.95 2.948)" fill="#da4453"/></svg>

<?xml version="1.0" encoding="UTF-8" standalone="no"?>
<!-- Created with Inkscape (http://www.inkscape.org/) -->

<svg
   xmlns:sketch="http://www.bohemiancoding.com/sketch/ns"
   xmlns:dc="http://purl.org/dc/elements/1.1/"
   xmlns:cc="http://creativecommons.org/ns#"
   xmlns:rdf="http://www.w3.org/1999/02/22-rdf-syntax-ns#"
   xmlns:svg="http://www.w3.org/2000/svg"
   xmlns="http://www.w3.org/2000/svg"
   xmlns:sodipodi="http://sodipodi.sourceforge.net/DTD/sodipodi-0.dtd"
   xmlns:inkscape="http://www.inkscape.org/namespaces/inkscape"
   width="22"
   height="22"
   id="svg3869"
   version="1.1"
   inkscape:version="0.91 r13725"
   sodipodi:docname="application-exit.svg">
  <defs
     id="defs3871" />
  <sodipodi:namedview
     id="base"
     pagecolor="#ffffff"
     bordercolor="#666666"
     borderopacity="1.0"
     inkscape:pageopacity="0.0"
     inkscape:pageshadow="2"
     inkscape:zoom="15.999999"
     inkscape:cx="-1.9841844"
     inkscape:cy="9.9767686"
     inkscape:document-units="px"
     inkscape:current-layer="layer1"
     showgrid="true"
     fit-margin-top="0"
     fit-margin-left="0"
     fit-margin-right="0"
     fit-margin-bottom="0"
     inkscape:window-width="1366"
     inkscape:window-height="630"
     inkscape:window-x="0"
     inkscape:window-y="36"
     inkscape:window-maximized="1"
     inkscape:showpageshadow="false"
     inkscape:object-nodes="true"
     inkscape:snap-bbox="true">
    <inkscape:grid
       type="xygrid"
       id="grid4132" />
    <sodipodi:guide
       position="4,18"
       orientation="18,0"
       id="guide4138" />
    <sodipodi:guide
       position="5,3"
       orientation="0,18"
       id="guide4140" />
    <sodipodi:guide
       position="20,2.0000174"
       orientation="-18,0"
       id="guide4142" />
    <sodipodi:guide
       position="2,21"
       orientation="0,-18"
       id="guide4144" />
    <sodipodi:guide
       position="3,19.000017"
       orientation="16,0"
       id="guide4146" />
    <sodipodi:guide
       position="2,4"
       orientation="0,16"
       id="guide4148" />
    <sodipodi:guide
       position="21,20"
       orientation="-16,0"
       id="guide4150" />
    <sodipodi:guide
       position="2,20"
       orientation="0,-16"
       id="guide4152" />
  </sodipodi:namedview>
  <metadata
     id="metadata3874">
    <rdf:RDF>
      <cc:Work
         rdf:about="">
        <dc:format>image/svg+xml</dc:format>
        <dc:type
           rdf:resource="http://purl.org/dc/dcmitype/StillImage" />
        <dc:title></dc:title>
      </cc:Work>
    </rdf:RDF>
  </metadata>
  <g
     inkscape:label="Capa 1"
     inkscape:groupmode="layer"
     id="layer1"
     transform="translate(-326,-534.3622)">
    <g
       transform="matrix(0.89258405,0,0,0.89258405,-149.61667,18.577336)"
       id="layer1-8"
       inkscape:label="Capa 1">
      <g
         style="fill:#da4453;fill-opacity:1"
         transform="matrix(0.14324114,0,0,0.14324114,536.15337,581.15537)"
         sketch:type="MSLayerGroup"
         id="cross41">
        <path
           style="fill:#da4453;fill-opacity:1"
           inkscape:connector-curvature="0"
           sketch:type="MSShapeGroup"
           id="path4493"
           d="M 117.18,31.592 C 111.585,22.006 103.995,14.416 94.409,8.821 84.821,3.226 74.354,0.429 63.001,0.429 51.649,0.429 41.179,3.226 31.593,8.821 22.006,14.415 14.416,22.005 8.821,31.592 3.225,41.179 0.428,51.649 0.428,63 c 0,11.352 2.798,21.82 8.392,31.408 5.595,9.585 13.185,17.176 22.772,22.771 9.587,5.595 20.056,8.392 31.408,8.392 11.352,0 21.822,-2.797 31.408,-8.392 9.586,-5.594 17.176,-13.185 22.771,-22.771 5.594,-9.587 8.391,-20.057 8.391,-31.408 0,-11.352 -2.797,-21.822 -8.39,-31.408 l 0,0 z M 92.493,77.746 c 1.032,1.031 1.549,2.255 1.549,3.667 0,1.466 -0.517,2.716 -1.549,3.747 l -7.332,7.333 c -1.032,1.032 -2.281,1.548 -3.748,1.548 -1.412,0 -2.636,-0.516 -3.666,-1.548 L 63,77.746 48.253,92.493 c -1.032,1.032 -2.254,1.548 -3.666,1.548 -1.467,0 -2.716,-0.516 -3.748,-1.548 L 33.506,85.16 c -1.032,-1.031 -1.548,-2.281 -1.548,-3.747 0,-1.412 0.516,-2.636 1.548,-3.667 L 48.253,63 33.506,48.253 c -1.032,-1.031 -1.548,-2.254 -1.548,-3.666 0,-1.467 0.516,-2.716 1.548,-3.748 l 7.333,-7.332 c 1.032,-1.032 2.281,-1.548 3.748,-1.548 1.412,0 2.634,0.516 3.666,1.548 L 63,48.253 77.747,33.507 c 1.03,-1.032 2.254,-1.548 3.666,-1.548 1.467,0 2.716,0.516 3.748,1.548 l 7.332,7.332 c 1.032,1.032 1.549,2.281 1.549,3.748 0,1.412 -0.517,2.635 -1.549,3.666 L 77.747,63 l 14.746,14.746 0,0 z" />
      </g>
    </g>
  </g>
</svg>
